!!!COM:	Bach, Johann Sebastian
!!!CDT:	1685/02/21/-1750/07/28/
!!!OTL@@DE: Jesu, nun sei gepreiset
!!!SCT:	BWV 41/6 & 171/6
!!!PC#: 11
!!!AGN:	chorale
**kern	**kern	**kern	**kern
*ICvox	*ICvox	*ICvox	*ICvox
*Ibass	*Itenor	*Ialto	*Isoprn
*I"Bass	*I"Tenor	*I"Alto	*I"Soprano
*clefF4	*clefGv2	*clefG2	*clefG2
*k[]	*k[]	*k[]	*k[]
*C:	*C:	*C:	*C:
*M4/4	*M4/4	*M4/4	*M4/4
*met(c)	*met(c)	*met(c)	*met(c)
*MM100	*MM100	*MM100	*MM100
4C	4c	4g	4ee
=1	=1	=1	=1
4C	8cL	4g	4ee
.	8dJ	.	.
4c	4e	4g	4cc
4B	4d	4g	4dd
4B-	4c	4g	4ee
=2	=2	=2	=2
4A	4c	8fL	2ff
.	.	8gJ	.
8GL	4f	4a	.
8FJ	.	.	.
4B-;	4f;	4b-;	4dd;
4F#	4A	4a	4dd
=3	=3	=3	=3
8GL	4Bn	4g	4dd
8FnJ	.	.	.
4E	4c	4g	4cc
4F	8fL	4a	4cc
.	8eJ	.	.
4G	4d	4g	4b
=4	=4	=4	=4
2C;	2e;	2g;	2cc;
4r	4ry	4ry	4r
4GG	8BL	8gL	4dd
.	8AJ	8f#J	.
=5	=5	=5	=5
8GL	8BL	4.g	4dd
8F#	8A	.	.
8G	8B	.	4dd
8AJ	8cJ	8f#	.
8BL	4d	4g	4dd
8GJ	.	.	.
4c	8cL	4g	4ee
.	8B-J	.	.
=6	=6	=6	=6
2F	4B-	4g	2cc
.	8AL	8fnL	.
.	8GJ	8eJ	.
4F;	4A;	4f;	4cc;
8EL	4e	4g	4cc
8FJ	.	.	.
=7	=7	=7	=7
4G	4d	8gL	4b
.	.	8fJ	.
8AL	4c	4e	4cc
8GJ	.	.	.
4F	4c	4a	4dd
8GL	4B	8gL	4dd
8GGJ	.	8fJ	.
=8	=8	=8	=8
2.C;	2.G;	2.e;	2.cc;
=:|!	=:|!	=:|!	=:|!
4GG	4d	4g	4b
=9	=9	=9	=9
8GL	8dL	4g	4b
8F#	8eJ	.	.
8E	4f#X	4a	4b
8D#J	.	.	.
8EL	4e	4g	4b
8Dn	.	.	.
8C	4e	4g#	4b
8BBJ	.	.	.
=10	=10	=10	=10
2AA	2e	2a	2cc
4AA;	4e;	4a;	4cc;
4D	4fn	4a	4b
=11	=11	=11	=11
8EL	4e	4a	4b
8F	.	.	.
8G	8eL	4g	4b
8AJ	8fJ	.	.
8GL	4g	4d	4b
8F	.	.	.
8E	[4f	4g	4b
8DJ	.	.	.
=12	=12	=12	=12
2C	4f]	2g	2cc
.	8eL	.	.
.	8dJ	.	.
4C;	4e;	4g;	4cc;
=||	=||	=||	=||
*M3/4	*M3/4	*M3/4	*M3/4
4C	4c	4g	4ee
=13	=13	=13	=13
4c	4c	2g	4ee
4B	4d	.	4dd
4A	4e	4g	4cc
=14	=14	=14	=14
4B	2d	4g	2dd
4A	.	4a	.
4G	4g	4b	4ee
=15	=15	=15	=15
2A	2c	4cc	2.ff
.	.	4b	.
4B	4d	4a	.
=16	=16	=16	=16
2c;	2e;	2g;	2ee;
4C	4g	4cc	4ee
=17	=17	=17	=17
4G	4g	4b	2dd
4A	4f	4a	.
4B-	4e	4g	4dd
=18	=18	=18	=18
4A	4f	4a	2cc#
4G	2e	4b-	.
4A	.	4g	4cc#
=19	=19	=19	=19
4B-	2d	2f	[2.dd
4A	.	.	.
4G	4e	4b-	.
=20	=20	=20	=20
2D;	2f;	2a;	2dd;]
4A	4c	4a	4ee
=21	=21	=21	=21
2G#	4B	2b	4ee
.	4e	.	4dd
4A	4e	4a	4cc
=22	=22	=22	=22
2F	4A	2a	2dd
.	4B	.	.
4E	[4c	4gn	4ee
=23	=23	=23	=23
2D	4c]	2a	2.ff
.	8BL	.	.
.	8AJ	.	.
4G	4B	4g	.
=24	=24	=24	=24
2C;	2c;	2g;	2ee;
4C#	4A	4g	4ee
=25	=25	=25	=25
4D	2A	4f	2dd
4E	.	4g	.
4F	4d	4a	4dd
=26	=26	=26	=26
4E	2e	4g	2cc#
4F	.	4a	.
4G	4e	4b-	4cc#
=27	=27	=27	=27
4F#	4A	4a	[2.dd
4G	4d	4b-	.
4GG	4B-	4g	.
=28	=28	=28	=28
2D;	2A;	2f#;	2dd;]
=||	=||	=||	=||
*M4/4	*M4/4	*M4/4	*M4/4
*met(C)	*met(C)	*met(C)	*met(C)
8AAL	4c	4a	4ee
8BBJ	.	.	.
=29	=29	=29	=29
8CL	4c	4g	4ee
8D	.	.	.
8E	4c	4g	4cc
8CJ	.	.	.
8FL	4B	4g	4dd
8G	.	.	.
8F	4c	4g	4ee
8EJ	.	.	.
=30	=30	=30	=30
8DL	8cL	2a	2ff
8E	8e	.	.
8F	8d	.	.
8DJ	8cJ	.	.
8G;L	4B;	4g;	4dd;
8A	.	.	.
8G	4B	4g	4dd
8FJ	.	.	.
=31	=31	=31	=31
8EL	4B	4g	4dd
8D	.	.	.
8E	8cL	4g	4cc
8FJ	8dJ	.	.
8GL	4e	8gL	4cc
8F	.	8aJ	.
8G	8dL	8gL	4b
8GGJ	8GJ	8fJ	.
=32	=32	=32	=32
2.C;	2.G;	2.e;	2.cc;
==	==	==	==
*-	*-	*-	*-
!!!hum2abc: -Q ''
!!!title: @{PC#}. @{OTL@@DE}
!!!YOR1: 371 vierstimmige Choralges&auml;nge von Johann Sebastian Bach, 
!!!YOR2: 4th ed. by Alfred D&ouml;rffel (Leipzig: Breitkopf und H&auml;rtel, 
!!!YOR2: c.1875). 178 pp. Plate "V.A.10".  reprint: J.S. Bach, 371 Four-Part 
!!!YOR4: Chorales (New York: Associated Music Publishers, Inc., c.1940).
!!!SMS: B&H, 4th ed, Alfred D&ouml;rffel, c.1875, plate V.A.10
!!!EED:  Craig Stuart Sapp
!!!EEV:  2009/05/22
